X:2933
T:CHESHIRE ROUND (Duet)
B:John of the Greeny Cheshire Way
N:© John Offord, Reproduced with permission
M:3/2
L:1/8
K:D
P:Voice 1
f2 ef gfed fg a2 | b2 e2 e2 d2 c2 A2 |\
f2 ef gfed fg a2 | A2 d2 d2 A2 F2 D2 ||
B2 AB =cBAG F4 | E2 e2 e2 d2 ^c2 A2 |\
B2 AB =cBAG F3 E | D2 d2 d2 A2 F2 D2 |]
P:Voice 2
d2 cd edcd de f2 | g4 g2 f2 e2 c2 |\
d2 cd edcd de f2 | A2 d2 d2 A2 F2 D2 ||
G2 FG AGFE D4 | E2 c2 c2 B2 A4 |\
G2 FG AGFE D2 E2 | F2 F2 G2 A2 D4 |]


